build/img/sprite_auto.svg

<svg xmlns="http://www.w3.org/2000/svg" xmlns:xlink="http://www.w3.org/1999/xlink"><symbol id="icon-cards" viewBox="0 0 34 30">
<path d="M32.7022 4.39716L11.8788 0.0350432C10.9978 -0.149457 10.1246 0.413172 9.93822 1.28524L9.54261 3.80181L33.5692 8.83467L33.9649 6.31811C34.1512 5.44636 33.5832 4.58172 32.7022 4.39716Z" fill="#565EF5"/>
<path d="M23.9451 9.36838C23.7019 8.50137 22.7865 7.98889 21.9109 8.22926L17.9579 9.31553L8.63885 7.3633L7.61395 12.1567L1.21035 13.916C0.334793 14.1565 -0.182933 15.0625 0.0599021 15.9293L3.6687 28.8018C3.91193 29.6685 4.82732 30.1813 5.70288 29.9406L26.4035 24.2542C27.279 24.0134 27.7967 23.1077 27.5539 22.2406L26.9345 20.0308L29.2561 20.5167C30.1371 20.7015 31.0103 20.1389 31.1967 19.2668L32.6656 12.3962L24.3029 10.6445L23.9451 9.36838ZM26.3357 15.9107L26.8477 13.5157C26.9246 13.1571 27.2838 12.9258 27.646 13.0015L30.0656 13.5086C30.4282 13.5847 30.6619 13.9399 30.5854 14.2988L30.0734 16.6939C29.9965 17.0525 29.6374 17.2841 29.2751 17.2081L26.8555 16.7013C26.4926 16.6249 26.2589 16.2693 26.3357 15.9107ZM1.57058 15.2006L22.2704 9.51455C22.297 9.50745 22.3235 9.5041 22.3494 9.5041C22.466 9.5041 22.6055 9.57988 22.6463 9.72501L23.3522 12.2422L2.0638 18.0899L1.35797 15.573C1.31374 15.4151 1.41108 15.2444 1.57058 15.2006ZM26.2558 22.5968C26.283 22.6945 26.2545 22.7753 26.2255 22.8258C26.197 22.8763 26.1418 22.9424 26.0432 22.9692L5.34299 28.6556C5.31682 28.6627 5.28994 28.6664 5.26405 28.6664C5.14738 28.6664 5.00788 28.5903 4.9671 28.4452L2.8622 20.9368L24.1506 15.0888L26.2558 22.5968Z" fill="#565EF5"/>
<path d="M8.68804 23.1106C8.58871 22.7571 8.21587 22.5483 7.8587 22.6463L5.44118 23.3106C5.08435 23.4086 4.87313 23.778 4.97246 24.1316L5.64324 26.5242C5.74258 26.8778 6.11541 27.0865 6.47258 26.9882L8.8901 26.3242C9.24727 26.2262 9.45816 25.8568 9.35915 25.5033L8.68804 23.1106Z" fill="#565EF5"/>
</symbol><symbol id="icon-eye" viewBox="0 0 22 12">
<path d="M8.29878 12L6.33638 11.4893L7.13618 8.59185C5.93899 8.16352 4.82634 7.5393 3.84654 6.7463L1.65854 8.86987L0.220528 7.47486L2.40955 5.35228C1.17386 3.91662 0.343585 2.19431 0 0.353927L2 0C2.77134 4.14262 6.50711 7.28557 11 7.28557C15.4919 7.28557 19.2287 4.14262 20 0L22 0.352941C21.6569 2.19358 20.827 3.91624 19.5915 5.35228L21.7795 7.47486L20.3415 8.86987L18.1535 6.7463C17.1737 7.5393 16.061 8.16352 14.8638 8.59185L15.6636 11.4903L13.7012 12L12.9004 9.10155C11.6426 9.31063 10.3574 9.31063 9.0996 9.10155L8.29878 12Z" fill="#1F1E25"/>
</symbol><symbol id="icon-inst"><path d="M8 0c2.174 0 2.445.008 3.298.048.852.04 1.432.174 1.942.372a3.9 3.9 0 011.418.922c.406.4.721.884.922 1.418.198.51.332 1.09.372 1.942C15.99 5.555 16 5.826 16 8s-.008 2.445-.048 3.298c-.04.852-.174 1.432-.372 1.942a3.907 3.907 0 01-.922 1.418 3.94 3.94 0 01-1.418.922c-.51.198-1.09.332-1.942.372C10.445 15.99 10.174 16 8 16s-2.445-.008-3.298-.048c-.852-.04-1.432-.174-1.942-.372a3.911 3.911 0 01-1.418-.922A3.923 3.923 0 01.42 13.24c-.198-.51-.332-1.09-.372-1.942C.01 10.445 0 10.174 0 8s.008-2.445.048-3.298C.088 3.85.222 3.27.42 2.76c.2-.534.515-1.018.922-1.418.4-.407.884-.721 1.418-.922C3.27.222 3.85.088 4.702.048 5.555.01 5.826 0 8 0zm0 4a4 4 0 100 8 4 4 0 000-8zm5.2-.2a1 1 0 10-2 0 1 1 0 002 0zM8 5.6a2.4 2.4 0 110 4.8 2.4 2.4 0 010-4.8z" fill="#1F1E25"/></symbol><symbol id="icon-location"><path d="M25.753 24.334L15.5 34 5.247 24.334c-2.028-1.911-3.409-4.347-3.968-6.998-.56-2.652-.273-5.4.825-7.898C3.2 6.94 5.06 4.806 7.444 3.304A15.134 15.134 0 0115.5 1c2.868 0 5.671.802 8.056 2.304 2.384 1.502 4.243 3.636 5.34 6.134a12.943 12.943 0 01.825 7.898c-.56 2.651-1.94 5.087-3.968 6.998z" fill="#2C36F2"/><path d="M16.343 8.615h-1.405L8.752 18.728h1.828l.843-1.445 4.92-8.668z" fill="#2C36F2"/><path d="M9.596 20.462h11.808l-5.06-8.957-.844 1.444 2.53 4.334.844 1.445H8.752l.844 1.733z" fill="#2C36F2"/><path d="M18.874 18.728l-.844-1.445h-6.607l-.843 1.445h8.294z" fill="#2C36F2"/><path d="M21.404 20.462l.843-1.734-5.904-10.113-4.92 8.668h1.547l2.53-4.334.843-1.444 5.061 8.957z" fill="#2C36F2"/><path d="M15.5 12.95l-2.53 4.333h5.06L15.5 12.95z" fill="#2C36F2"/><path d="M21.404 20.462H9.596l-.844-1.734m12.652 1.733l.843-1.733-5.904-10.113m5.061 11.847l-5.06-8.957-.844 1.444m.843-4.334h-1.405L8.752 18.728m7.591-10.113l-4.92 8.668m-2.67 1.445h1.827m4.92-5.779l-2.53 4.334m2.53-4.334l2.53 4.334m-5.06 0h5.06m-5.06 0h-1.547m6.607 0l.844 1.445H10.58m.843-1.445l-.843 1.445m15.173 5.606L15.5 34 5.247 24.334c-2.028-1.911-3.409-4.347-3.968-6.998-.56-2.652-.273-5.4.825-7.898C3.2 6.94 5.06 4.806 7.444 3.304A15.134 15.134 0 0115.5 1c2.868 0 5.671.802 8.056 2.304 2.384 1.502 4.243 3.636 5.34 6.134a12.943 12.943 0 01.825 7.898c-.56 2.651-1.94 5.087-3.968 6.998z" stroke="#F6F7FF" stroke-width=".5"/></symbol><symbol id="icon-login" viewBox="0 0 20 22">
<path d="M2.22222 14.3H4.44444V19.8H17.7778V2.2H4.44444V7.7H2.22222V1.1C2.22222 0.808262 2.33929 0.528472 2.54766 0.322183C2.75603 0.115892 3.03865 0 3.33333 0H18.8889C19.1836 0 19.4662 0.115892 19.6746 0.322183C19.8829 0.528472 20 0.808262 20 1.1V20.9C20 21.1917 19.8829 21.4715 19.6746 21.6778C19.4662 21.8841 19.1836 22 18.8889 22H3.33333C3.03865 22 2.75603 21.8841 2.54766 21.6778C2.33929 21.4715 2.22222 21.1917 2.22222 20.9V14.3ZM8.88889 9.9V6.6L14.4444 11L8.88889 15.4V12.1H0V9.9H8.88889Z" fill="#1F1E25"/>
</symbol><symbol id="icon-phone-tab" viewBox="0 0 20 34">
<path d="M17.6746 0H2.3254C1.04663 0 0 1.03263 0 2.29646V31.7026C0 32.9664 1.04663 34 2.3254 34H17.6746C18.9534 34 20 32.9683 20 31.7035V2.29646C20 1.03263 18.9534 0 17.6746 0ZM7.54476 1.65531H12.4552C12.6107 1.65531 12.7366 1.77966 12.7366 1.93411C12.7366 2.0876 12.6107 2.21194 12.4552 2.21194H7.54476C7.38934 2.21194 7.26343 2.0876 7.26343 1.93411C7.26343 1.77966 7.38934 1.65531 7.54476 1.65531ZM10 32.8518C9.35766 32.8518 8.8373 32.3379 8.8373 31.7026C8.8373 31.0673 9.35766 30.5543 10 30.5543C10.6423 30.5543 11.1627 31.0673 11.1627 31.7026C11.1627 32.3379 10.6423 32.8518 10 32.8518ZM18.3819 29.75H1.61814V3.64189H18.3819V29.75Z" fill="#565EF5"/>
</symbol><symbol id="icon-phone"><path d="M8.837 0H1.163C.523 0 0 .486 0 1.08v13.84C0 15.514.523 16 1.163 16h7.674c.64 0 1.163-.486 1.163-1.08V1.08C10 .487 9.477 0 8.837 0zM3.772.779h2.456c.077 0 .14.058.14.131 0 .072-.063.13-.14.13H3.772c-.077 0-.14-.058-.14-.13 0-.073.063-.131.14-.131zM5 15.459c-.321 0-.581-.241-.581-.54 0-.3.26-.54.581-.54.321 0 .581.24.581.54 0 .299-.26.54-.581.54zM9.19 14H.81V1.714h8.38V14z" fill="#1F1E25"/></symbol><symbol id="icon-security" viewBox="0 0 28 34">
<path d="M27.9234 5.31216C22.1552 5.31216 17.7362 3.65462 13.9995 0C10.2631 3.65462 5.84431 5.31216 0.0766133 5.31216C0.0766133 14.8295 -1.88138 28.4631 13.9994 34C29.8813 28.4632 27.9234 14.8296 27.9234 5.31216ZM12.8461 22.0601L8.2074 17.3939L10.2843 15.3051L12.8461 17.8823L17.7151 12.9849L19.7919 15.0737L12.8461 22.0601Z" fill="#565EF5"/>
</symbol><symbol id="icon-tel"><path d="M16 11.928v3.143a.888.888 0 01-.828.887 14.3 14.3 0 01-.95.041C6.366 16 0 9.632 0 1.778c0-.246.013-.563.04-.951A.889.889 0 01.929 0H4.07a.444.444 0 01.443.4c.02.204.039.367.056.49a12.356 12.356 0 001.074 3.557c.085.178.03.39-.13.504L3.594 6.32a11.596 11.596 0 006.084 6.084l1.368-1.915a.41.41 0 01.51-.132 12.325 12.325 0 004.044 1.128.444.444 0 01.399.442z" fill="#1F1E25"/></symbol><symbol id="icon-twitter"><path d="M16 1.543c-.6.265-1.236.44-1.886.516A3.292 3.292 0 0015.558.244a6.564 6.564 0 01-2.085.796A3.283 3.283 0 007.88 4.032 9.325 9.325 0 011.114.604a3.28 3.28 0 001.016 4.38 3.273 3.273 0 01-1.487-.41v.04a3.281 3.281 0 002.633 3.218c-.484.13-.99.15-1.483.056a3.283 3.283 0 003.066 2.279A6.59 6.59 0 010 11.525 9.29 9.29 0 005.031 13c6.039 0 9.341-4.999 9.341-9.334 0-.141-.004-.284-.01-.424A6.667 6.667 0 0016 1.544z" fill="#1F1E25"/></symbol><symbol id="icon-vault" viewBox="0 0 34 33">
<path d="M4.20734 26.063H29.7924V4.36579H4.20734V26.063ZM12.8681 11.7959C14.4742 11.7959 15.8268 12.8933 16.2055 14.3724H23.727V16.056H16.2055C15.8267 17.5352 14.4742 18.6327 12.8681 18.6327C10.9695 18.6327 9.42492 17.0991 9.42492 15.2142C9.42483 13.3294 10.9695 11.7959 12.8681 11.7959Z" fill="#2C36F2"/>
<path d="M0 0V30.4287H2.48008V33H5.44779V30.4287H28.5522V33H31.5199V30.4287H34V0H0ZM2.51162 27.7466V2.68218H31.4884V27.7466H2.51162Z" fill="#2C36F2"/>
</symbol><symbol id="icon-youtube"><path d="M15.634 2.03C16 3.478 16 6.5 16 6.5s0 3.023-.366 4.47c-.203.8-.797 1.43-1.55 1.643C12.717 13 8 13 8 13s-4.714 0-6.084-.387c-.756-.216-1.35-.845-1.55-1.643C0 9.523 0 6.5 0 6.5s0-3.022.366-4.47c.203-.8.797-1.43 1.55-1.643C3.286 0 8 0 8 0s4.717 0 6.084.387c.756.216 1.35.845 1.55 1.643zM6.4 9.344L11.2 6.5 6.4 3.656v5.688z" fill="#1F1E25"/></symbol></svg>

<svg xmlns="http://www.w3.org/2000/svg" xmlns:xlink="http://www.w3.org/1999/xlink"><symbol id="icon-cards"><path d="M32.702 4.397L11.88.035a1.642 1.642 0 00-1.94 1.25l-.396 2.517L33.57 8.835l.396-2.517a1.626 1.626 0 00-1.263-1.92zm-8.757 4.971a1.66 1.66 0 00-2.034-1.139l-3.953 1.087-9.32-1.953-1.024 4.794-6.404 1.759a1.639 1.639 0 00-1.15 2.013l3.609 12.873a1.66 1.66 0 002.034 1.139l20.7-5.687a1.639 1.639 0 001.15-2.013l-.619-2.21 2.322.486a1.641 1.641 0 001.94-1.25l1.47-6.87-8.363-1.752-.358-1.277zm2.39 6.543l.513-2.395a.676.676 0 01.798-.514l2.42.507a.669.669 0 01.52.79l-.513 2.395a.676.676 0 01-.798.514l-2.42-.507a.67.67 0 01-.52-.79zM1.572 15.2l20.7-5.686a.312.312 0 01.376.21l.705 2.517L2.064 18.09l-.706-2.517a.306.306 0 01.213-.372zm24.685 7.396a.295.295 0 01-.03.229.296.296 0 01-.183.143l-20.7 5.687a.312.312 0 01-.376-.21l-2.105-7.51 21.289-5.847 2.105 7.508z" fill="#565EF5"/><path d="M8.688 23.11a.677.677 0 00-.83-.464l-2.417.665a.668.668 0 00-.469.82l.671 2.393c.1.354.472.563.83.464l2.417-.664a.668.668 0 00.47-.82l-.672-2.393z" fill="#565EF5"/></symbol><symbol id="icon-eye" viewBox="0 0 22 12">
<path d="M8.29878 12L6.33638 11.4893L7.13618 8.59185C5.93899 8.16352 4.82634 7.5393 3.84654 6.7463L1.65854 8.86987L0.220528 7.47486L2.40955 5.35228C1.17386 3.91662 0.343585 2.19431 0 0.353927L2 0C2.77134 4.14262 6.50711 7.28557 11 7.28557C15.4919 7.28557 19.2287 4.14262 20 0L22 0.352941C21.6569 2.19358 20.827 3.91624 19.5915 5.35228L21.7795 7.47486L20.3415 8.86987L18.1535 6.7463C17.1737 7.5393 16.061 8.16352 14.8638 8.59185L15.6636 11.4903L13.7012 12L12.9004 9.10155C11.6426 9.31063 10.3574 9.31063 9.0996 9.10155L8.29878 12Z" fill="#1F1E25"/>
</symbol><symbol id="icon-inst"><path d="M8 0c2.174 0 2.445.008 3.298.048.852.04 1.432.174 1.942.372a3.9 3.9 0 011.418.922c.406.4.721.884.922 1.418.198.51.332 1.09.372 1.942C15.99 5.555 16 5.826 16 8s-.008 2.445-.048 3.298c-.04.852-.174 1.432-.372 1.942a3.907 3.907 0 01-.922 1.418 3.94 3.94 0 01-1.418.922c-.51.198-1.09.332-1.942.372C10.445 15.99 10.174 16 8 16s-2.445-.008-3.298-.048c-.852-.04-1.432-.174-1.942-.372a3.911 3.911 0 01-1.418-.922A3.923 3.923 0 01.42 13.24c-.198-.51-.332-1.09-.372-1.942C.01 10.445 0 10.174 0 8s.008-2.445.048-3.298C.088 3.85.222 3.27.42 2.76c.2-.534.515-1.018.922-1.418.4-.407.884-.721 1.418-.922C3.27.222 3.85.088 4.702.048 5.555.01 5.826 0 8 0zm0 4a4 4 0 100 8 4 4 0 000-8zm5.2-.2a1 1 0 10-2 0 1 1 0 002 0zM8 5.6a2.4 2.4 0 110 4.8 2.4 2.4 0 010-4.8z" fill="#1F1E25"/></symbol><symbol id="icon-location"><path d="M25.753 24.334L15.5 34 5.247 24.334c-2.028-1.911-3.409-4.347-3.968-6.998-.56-2.652-.273-5.4.825-7.898C3.2 6.94 5.06 4.806 7.444 3.304A15.134 15.134 0 0115.5 1c2.868 0 5.671.802 8.056 2.304 2.384 1.502 4.243 3.636 5.34 6.134a12.943 12.943 0 01.825 7.898c-.56 2.651-1.94 5.087-3.968 6.998z" fill="#2C36F2"/><path d="M16.343 8.615h-1.405L8.752 18.728h1.828l.843-1.445 4.92-8.668z" fill="#2C36F2"/><path d="M9.596 20.462h11.808l-5.06-8.957-.844 1.444 2.53 4.334.844 1.445H8.752l.844 1.733z" fill="#2C36F2"/><path d="M18.874 18.728l-.844-1.445h-6.607l-.843 1.445h8.294z" fill="#2C36F2"/><path d="M21.404 20.462l.843-1.734-5.904-10.113-4.92 8.668h1.547l2.53-4.334.843-1.444 5.061 8.957z" fill="#2C36F2"/><path d="M15.5 12.95l-2.53 4.333h5.06L15.5 12.95z" fill="#2C36F2"/><path d="M21.404 20.462H9.596l-.844-1.734m12.652 1.733l.843-1.733-5.904-10.113m5.061 11.847l-5.06-8.957-.844 1.444m.843-4.334h-1.405L8.752 18.728m7.591-10.113l-4.92 8.668m-2.67 1.445h1.827m4.92-5.779l-2.53 4.334m2.53-4.334l2.53 4.334m-5.06 0h5.06m-5.06 0h-1.547m6.607 0l.844 1.445H10.58m.843-1.445l-.843 1.445m15.173 5.606L15.5 34 5.247 24.334c-2.028-1.911-3.409-4.347-3.968-6.998-.56-2.652-.273-5.4.825-7.898C3.2 6.94 5.06 4.806 7.444 3.304A15.134 15.134 0 0115.5 1c2.868 0 5.671.802 8.056 2.304 2.384 1.502 4.243 3.636 5.34 6.134a12.943 12.943 0 01.825 7.898c-.56 2.651-1.94 5.087-3.968 6.998z" stroke="#F6F7FF" stroke-width=".5"/></symbol><symbol id="icon-login" viewBox="0 0 20 22">
<path d="M2.22222 14.3H4.44444V19.8H17.7778V2.2H4.44444V7.7H2.22222V1.1C2.22222 0.808262 2.33929 0.528472 2.54766 0.322183C2.75603 0.115892 3.03865 0 3.33333 0H18.8889C19.1836 0 19.4662 0.115892 19.6746 0.322183C19.8829 0.528472 20 0.808262 20 1.1V20.9C20 21.1917 19.8829 21.4715 19.6746 21.6778C19.4662 21.8841 19.1836 22 18.8889 22H3.33333C3.03865 22 2.75603 21.8841 2.54766 21.6778C2.33929 21.4715 2.22222 21.1917 2.22222 20.9V14.3ZM8.88889 9.9V6.6L14.4444 11L8.88889 15.4V12.1H0V9.9H8.88889Z" fill="#1F1E25"/>
</symbol><symbol id="icon-phone-tab"><path d="M17.675 0H2.325C1.047 0 0 1.033 0 2.296v29.407C0 32.966 1.047 34 2.325 34h15.35C18.953 34 20 32.968 20 31.703V2.296C20 1.033 18.953 0 17.675 0zM7.545 1.655h4.91a.28.28 0 01.282.28.28.28 0 01-.282.277h-4.91a.28.28 0 01-.282-.278.28.28 0 01.282-.279zM10 32.852a1.155 1.155 0 01-1.163-1.15c0-.635.52-1.148 1.163-1.148.642 0 1.163.513 1.163 1.149 0 .635-.52 1.149-1.163 1.149zm8.382-3.102H1.618V3.642h16.764V29.75z" fill="#565EF5"/></symbol><symbol id="icon-phone"><path d="M8.837 0H1.163C.523 0 0 .486 0 1.08v13.84C0 15.514.523 16 1.163 16h7.674c.64 0 1.163-.486 1.163-1.08V1.08C10 .487 9.477 0 8.837 0zM3.772.779h2.456c.077 0 .14.058.14.131 0 .072-.063.13-.14.13H3.772c-.077 0-.14-.058-.14-.13 0-.073.063-.131.14-.131zM5 15.459c-.321 0-.581-.241-.581-.54 0-.3.26-.54.581-.54.321 0 .581.24.581.54 0 .299-.26.54-.581.54zM9.19 14H.81V1.714h8.38V14z" fill="#1F1E25"/></symbol><symbol id="icon-security"><path d="M27.923 5.312C22.155 5.312 17.736 3.655 14 0 10.262 3.655 5.843 5.312.076 5.312.077 14.83-1.881 28.463 13.999 34c15.882-5.537 13.924-19.17 13.924-28.688zM12.846 22.06l-4.639-4.666 2.077-2.089 2.562 2.577 4.87-4.897 2.076 2.089-6.946 6.986z" fill="#565EF5"/></symbol><symbol id="icon-tel"><path d="M16 11.928v3.143a.888.888 0 01-.828.887 14.3 14.3 0 01-.95.041C6.366 16 0 9.632 0 1.778c0-.246.013-.563.04-.951A.889.889 0 01.929 0H4.07a.444.444 0 01.443.4c.02.204.039.367.056.49a12.356 12.356 0 001.074 3.557c.085.178.03.39-.13.504L3.594 6.32a11.596 11.596 0 006.084 6.084l1.368-1.915a.41.41 0 01.51-.132 12.325 12.325 0 004.044 1.128.444.444 0 01.399.442z" fill="#1F1E25"/></symbol><symbol id="icon-twitter"><path d="M16 1.543c-.6.265-1.236.44-1.886.516A3.292 3.292 0 0015.558.244a6.564 6.564 0 01-2.085.796A3.283 3.283 0 007.88 4.032 9.325 9.325 0 011.114.604a3.28 3.28 0 001.016 4.38 3.273 3.273 0 01-1.487-.41v.04a3.281 3.281 0 002.633 3.218c-.484.13-.99.15-1.483.056a3.283 3.283 0 003.066 2.279A6.59 6.59 0 010 11.525 9.29 9.29 0 005.031 13c6.039 0 9.341-4.999 9.341-9.334 0-.141-.004-.284-.01-.424A6.667 6.667 0 0016 1.544z" fill="#1F1E25"/></symbol><symbol id="icon-vault"><path d="M4.207 26.063h25.585V4.366H4.207v21.697zm8.661-14.267a3.445 3.445 0 013.338 2.576h7.521v1.684h-7.521a3.445 3.445 0 01-3.338 2.577c-1.899 0-3.443-1.534-3.443-3.419s1.544-3.418 3.443-3.418z" fill="#2C36F2"/><path d="M0 0v30.429h2.48V33h2.968v-2.571h23.104V33h2.968v-2.571H34V0H0zm2.512 27.747V2.682h28.976v25.065H2.512z" fill="#2C36F2"/></symbol><symbol id="icon-youtube"><path d="M15.634 2.03C16 3.478 16 6.5 16 6.5s0 3.023-.366 4.47c-.203.8-.797 1.43-1.55 1.643C12.717 13 8 13 8 13s-4.714 0-6.084-.387c-.756-.216-1.35-.845-1.55-1.643C0 9.523 0 6.5 0 6.5s0-3.022.366-4.47c.203-.8.797-1.43 1.55-1.643C3.286 0 8 0 8 0s4.717 0 6.084.387c.756.216 1.35.845 1.55 1.643zM6.4 9.344L11.2 6.5 6.4 3.656v5.688z" fill="#1F1E25"/></symbol></svg>
